; generated by PrusaSlicer 2.5.0+win64 on 2022-10-18 at 17:07:30 UTC

; 

; external perimeters extrusion width = 0.50mm
; perimeters extrusion width = 0.45mm
; infill extrusion width = 0.21mm
; solid infill extrusion width = 0.45mm
; top infill extrusion width = 0.40mm
; first layer extrusion width = 0.40mm

M107
;TYPE:Custom
G21 ;metric values
G90 ;absolute positioning
M82 ;set extruder to absolute mode
M107 ;start with the fan off
M117 Homing X/Y ...
G28 X0 Y0 ;move X/Y to min endstops
M117 Homing Z ...
G28 Z0 ;move Z to min endstops
G1 Z15.0 F240 ;move the platform down 15mm
M117 Heating ...
M104 S220
 ; set extruder temp
M109 S220
 ; wait for extruder temp
M117 Start cleaning ...
G92 E0 ;zero the extruded length
G1 F200 E10 ;extrude 10mm of feed stock
G92 E0 ;zero the extruded length again
M117 Intro line ...
G1 Z2.0 F3000 ; Move Z Axis up little to prevent scratching of Heat Bed
G1 X0.1 Y20 Z0.2 F5000.0 ; Move to start position
G1 X0.1 Y200.0 Z0.2 F1500.0 E15 ; Draw the first line
G1 X0.4 Y200.0 Z0.2 F5000.0 ; Move to side a little
G1 X0.4 Y20 Z0.30.2 F1500.0 E30 ; Draw the second line
G92 E0 ; Reset Extruder
G1 E-1 F500 ; Retract filiment by 1 mm
G1 Z2.0 F3000 ; Move Z Axis up little to prevent scratching of Heat Bed
G1 X5 Y20 Z0.3 F240 ; Move over to prevent blob squish
G92 E0 ; Reset Extruder
M117 Printing...
G21 ; set units to millimeters
G90 ; use absolute coordinates
M83 ; use relative distances for extrusion
; Filament gcode
M107
;LAYER_CHANGE
;Z:0.2
;HEIGHT:0.2
; BEFORE_LAYER_CHANGE 0 @ 0.2mm
G92 E0.0
G1 E-7 F1800
G1 Z.2 F7800
; AFTER_LAYER_CHANGE 0 @ 0.2mm
G1 Z.4
G1 X85.181 Y85.854
G1 Z.2
G1 E7 F1800
;TYPE:Skirt/Brim
;WIDTH:0.4
G1 X86.923 Y84.437 E.06736
G1 X90 Y83.643 E.09528
G1 X110 Y83.643 E.59976
G1 X112.211 Y84.04 E.06736
G1 X114.146 Y85.181 E.06736
G1 X115.563 Y86.923 E.06736
G1 X116.357 Y90 E.09528
G1 X116.357 Y110 E.59976
G1 X115.96 Y112.211 E.06736
G1 X114.819 Y114.146 E.06736
G1 X113.077 Y115.563 E.06736
G1 X110 Y116.357 E.09528
G1 X90 Y116.357 E.59976
G1 X87.789 Y115.96 E.06736
G1 X85.854 Y114.819 E.06736
G1 X84.437 Y113.077 E.06736
G1 X83.643 Y110 E.09528
G1 X83.643 Y90 E.59976
G1 X84.04 Y87.789 E.06736
G1 X85.15 Y85.906 E.06556
G1 E-4.9
;WIPE_START
G1 F6240
G1 X86.923 Y84.437 E-.631
G1 X90 Y83.643 E-.87071
G1 X91.8 Y83.643 E-.49329
;WIPE_END
G1 E-.105 F1800
G1 Z.4 F7800
G1 X109.443 Y109.443
G1 Z.2
G1 E7 F1800
;TYPE:Perimeter
;WIDTH:0.399999
G1 X90.557 Y109.443 E.56635
G1 X90.557 Y90.557 E.56635
G1 X109.443 Y90.557 E.56635
G1 X109.443 Y109.383 E.56455
G1 X109.8 Y109.8 F7800
;TYPE:External perimeter
G1 F1800
G1 X90.2 Y109.8 E.58777
G1 X90.2 Y90.2 E.58777
G1 X109.8 Y90.2 E.58777
G1 X109.8 Y109.74 E.58597
G1 X109.414 Y109.696 F7800
G1 E-4.9 F1800
;WIPE_START
G1 F6240
G1 X102.52 Y109.762 E-1.995
;WIPE_END
G1 E-.105 F1800
G1 Z.4 F7800
G1 X109.381 Y90.692
G1 Z.2
G1 E7 F1800
;TYPE:Internal infill
;WIDTH:0.4
G1 X90.692 Y90.692 E.56045
G1 X90.692 Y90.856 E.0049
G1 X109.308 Y90.856 E.55825
G1 X109.308 Y91.019 E.0049
G1 X90.692 Y91.019 E.55825
G1 X90.692 Y91.182 E.0049
G1 X109.308 Y91.182 E.55825
G1 X109.308 Y91.346 E.0049
G1 X90.692 Y91.346 E.55825
G1 X90.692 Y91.509 E.0049
G1 X109.308 Y91.509 E.55825
G1 X109.308 Y91.672 E.0049
G1 X90.692 Y91.672 E.55825
G1 X90.692 Y91.835 E.0049
G1 X109.308 Y91.835 E.55825
G1 X109.308 Y91.999 E.0049
G1 X90.692 Y91.999 E.55825
G1 X90.692 Y92.162 E.0049
G1 X109.308 Y92.162 E.55825
G1 X109.308 Y92.325 E.0049
G1 X90.692 Y92.325 E.55825
G1 X90.692 Y92.489 E.0049
G1 X109.308 Y92.489 E.55825
G1 X109.308 Y92.652 E.0049
G1 X90.692 Y92.652 E.55825
G1 X90.692 Y92.815 E.0049
G1 X109.308 Y92.815 E.55825
G1 X109.308 Y92.978 E.0049
G1 X90.692 Y92.978 E.55825
G1 X90.692 Y93.142 E.0049
G1 X109.308 Y93.142 E.55825
G1 X109.308 Y93.305 E.0049
G1 X90.692 Y93.305 E.55825
G1 X90.692 Y93.468 E.0049
G1 X109.308 Y93.468 E.55825
G1 X109.308 Y93.632 E.0049
G1 X90.692 Y93.632 E.55825
G1 X90.692 Y93.795 E.0049
G1 X109.308 Y93.795 E.55825
G1 X109.308 Y93.958 E.0049
G1 X90.692 Y93.958 E.55825
G1 X90.692 Y94.121 E.0049
G1 X109.308 Y94.121 E.55825
G1 X109.308 Y94.285 E.0049
G1 X90.692 Y94.285 E.55825
G1 X90.692 Y94.448 E.0049
G1 X109.308 Y94.448 E.55825
G1 X109.308 Y94.611 E.0049
G1 X90.692 Y94.611 E.55825
G1 X90.692 Y94.775 E.0049
G1 X109.308 Y94.775 E.55825
G1 X109.308 Y94.938 E.0049
G1 X90.692 Y94.938 E.55825
G1 X90.692 Y95.101 E.0049
G1 X109.308 Y95.101 E.55825
G1 X109.308 Y95.265 E.0049
G1 X90.692 Y95.265 E.55825
G1 X90.692 Y95.428 E.0049
G1 X109.308 Y95.428 E.55825
G1 X109.308 Y95.591 E.0049
G1 X90.692 Y95.591 E.55825
G1 X90.692 Y95.754 E.0049
G1 X109.308 Y95.754 E.55825
G1 X109.308 Y95.918 E.0049
G1 X90.692 Y95.918 E.55825
G1 X90.692 Y96.081 E.0049
G1 X109.308 Y96.081 E.55825
G1 X109.308 Y96.244 E.0049
G1 X90.692 Y96.244 E.55825
G1 X90.692 Y96.408 E.0049
G1 X109.308 Y96.408 E.55825
G1 X109.308 Y96.571 E.0049
G1 X90.692 Y96.571 E.55825
G1 X90.692 Y96.734 E.0049
G1 X109.308 Y96.734 E.55825
G1 X109.308 Y96.897 E.0049
G1 X90.692 Y96.897 E.55825
G1 X90.692 Y97.061 E.0049
G1 X109.308 Y97.061 E.55825
G1 X109.308 Y97.224 E.0049
G1 X90.692 Y97.224 E.55825
G1 X90.692 Y97.387 E.0049
G1 X109.308 Y97.387 E.55825
G1 X109.308 Y97.551 E.0049
G1 X90.692 Y97.551 E.55825
G1 X90.692 Y97.714 E.0049
G1 X109.308 Y97.714 E.55825
G1 X109.308 Y97.877 E.0049
G1 X90.692 Y97.877 E.55825
G1 X90.692 Y98.041 E.0049
G1 X109.308 Y98.041 E.55825
G1 X109.308 Y98.204 E.0049
G1 X90.692 Y98.204 E.55825
G1 X90.692 Y98.367 E.0049
G1 X109.308 Y98.367 E.55825
G1 X109.308 Y98.53 E.0049
G1 X90.692 Y98.53 E.55825
G1 X90.692 Y98.694 E.0049
G1 X109.308 Y98.694 E.55825
G1 X109.308 Y98.857 E.0049
G1 X90.692 Y98.857 E.55825
G1 X90.692 Y99.02 E.0049
G1 X109.308 Y99.02 E.55825
G1 X109.308 Y99.184 E.0049
G1 X90.692 Y99.184 E.55825
G1 X90.692 Y99.347 E.0049
G1 X109.308 Y99.347 E.55825
G1 X109.308 Y99.51 E.0049
G1 X90.692 Y99.51 E.55825
G1 X90.692 Y99.673 E.0049
G1 X109.308 Y99.673 E.55825
G1 X109.308 Y99.837 E.0049
G1 X90.692 Y99.837 E.55825
G1 X90.692 Y100 E.0049
G1 X109.308 Y100 E.55825
G1 X109.308 Y100.163 E.0049
G1 X90.692 Y100.163 E.55825
G1 X90.692 Y100.327 E.0049
G1 X109.308 Y100.327 E.55825
G1 X109.308 Y100.49 E.0049
G1 X90.692 Y100.49 E.55825
G1 X90.692 Y100.653 E.0049
G1 X109.308 Y100.653 E.55825
G1 X109.308 Y100.817 E.0049
G1 X90.692 Y100.817 E.55825
G1 X90.692 Y100.98 E.0049
G1 X109.308 Y100.98 E.55825
G1 X109.308 Y101.143 E.0049
G1 X90.692 Y101.143 E.55825
G1 X90.692 Y101.306 E.0049
G1 X109.308 Y101.306 E.55825
G1 X109.308 Y101.47 E.0049
G1 X90.692 Y101.47 E.55825
G1 X90.692 Y101.633 E.0049
G1 X109.308 Y101.633 E.55825
G1 X109.308 Y101.796 E.0049
G1 X90.692 Y101.796 E.55825
G1 X90.692 Y101.96 E.0049
G1 X109.308 Y101.96 E.55825
G1 X109.308 Y102.123 E.0049
G1 X90.692 Y102.123 E.55825
G1 X90.692 Y102.286 E.0049
G1 X109.308 Y102.286 E.55825
G1 X109.308 Y102.449 E.0049
G1 X90.692 Y102.449 E.55825
G1 X90.692 Y102.613 E.0049
G1 X109.308 Y102.613 E.55825
G1 X109.308 Y102.776 E.0049
G1 X90.692 Y102.776 E.55825
G1 X90.692 Y102.939 E.0049
G1 X109.308 Y102.939 E.55825
G1 X109.308 Y103.103 E.0049
G1 X90.692 Y103.103 E.55825
G1 X90.692 Y103.266 E.0049
G1 X109.308 Y103.266 E.55825
G1 X109.308 Y103.429 E.0049
G1 X90.692 Y103.429 E.55825
G1 X90.692 Y103.592 E.0049
G1 X109.308 Y103.592 E.55825
G1 X109.308 Y103.756 E.0049
G1 X90.692 Y103.756 E.55825
G1 X90.692 Y103.919 E.0049
G1 X109.308 Y103.919 E.55825
G1 X109.308 Y104.082 E.0049
G1 X90.692 Y104.082 E.55825
G1 X90.692 Y104.246 E.0049
G1 X109.308 Y104.246 E.55825
G1 X109.308 Y104.409 E.0049
G1 X90.692 Y104.409 E.55825
G1 X90.692 Y104.572 E.0049
G1 X109.308 Y104.572 E.55825
G1 X109.308 Y104.736 E.0049
G1 X90.692 Y104.736 E.55825
G1 X90.692 Y104.899 E.0049
G1 X109.308 Y104.899 E.55825
G1 X109.308 Y105.062 E.0049
G1 X90.692 Y105.062 E.55825
G1 X90.692 Y105.225 E.0049
G1 X109.308 Y105.225 E.55825
G1 X109.308 Y105.389 E.0049
G1 X90.692 Y105.389 E.55825
G1 X90.692 Y105.552 E.0049
G1 X109.308 Y105.552 E.55825
G1 X109.308 Y105.715 E.0049
G1 X90.692 Y105.715 E.55825
G1 X90.692 Y105.879 E.0049
G1 X109.308 Y105.879 E.55825
G1 X109.308 Y106.042 E.0049
G1 X90.692 Y106.042 E.55825
G1 X90.692 Y106.205 E.0049
G1 X109.308 Y106.205 E.55825
G1 X109.308 Y106.368 E.0049
G1 X90.692 Y106.368 E.55825
G1 X90.692 Y106.532 E.0049
G1 X109.308 Y106.532 E.55825
G1 X109.308 Y106.695 E.0049
G1 X90.692 Y106.695 E.55825
G1 X90.692 Y106.858 E.0049
G1 X109.308 Y106.858 E.55825
G1 X109.308 Y107.022 E.0049
G1 X90.692 Y107.022 E.55825
G1 X90.692 Y107.185 E.0049
G1 X109.308 Y107.185 E.55825
G1 X109.308 Y107.348 E.0049
G1 X90.692 Y107.348 E.55825
G1 X90.692 Y107.512 E.0049
G1 X109.308 Y107.512 E.55825
G1 X109.308 Y107.675 E.0049
G1 X90.692 Y107.675 E.55825
G1 X90.692 Y107.838 E.0049
G1 X109.308 Y107.838 E.55825
G1 X109.308 Y108.001 E.0049
G1 X90.692 Y108.001 E.55825
G1 X90.692 Y108.165 E.0049
G1 X109.308 Y108.165 E.55825
G1 X109.308 Y108.328 E.0049
G1 X90.692 Y108.328 E.55825
G1 X90.692 Y108.491 E.0049
G1 X109.308 Y108.491 E.55825
G1 X109.308 Y108.655 E.0049
G1 X90.692 Y108.655 E.55825
G1 X90.692 Y108.818 E.0049
G1 X109.308 Y108.818 E.55825
G1 X109.308 Y108.981 E.0049
G1 X90.692 Y108.981 E.55825
G1 X90.692 Y109.144 E.0049
G1 X109.308 Y109.144 E.55825
G1 X109.308 Y109.308 E.0049
G1 X90.619 Y109.308 E.56045
;LAYER_CHANGE
;Z:0.4
;HEIGHT:0.2
; BEFORE_LAYER_CHANGE 1 @ 0.4mm
G92 E0.0
G1 E-4.9 F1800
;WIPE_START
G1 F6240
G1 X97.899 Y109.308 E-1.995
;WIPE_END
G1 E-.105 F1800
G1 Z.4 F7800
; AFTER_LAYER_CHANGE 1 @ 0.4mm
G1 Z.6
G1 X109.318 Y109.318
G1 Z.4
G1 E7 F1800
;TYPE:Perimeter
;WIDTH:0.449999
G1 F3600
G1 X90.682 Y109.318 E.63711
G1 X90.682 Y90.682 E.63711
G1 X109.318 Y90.682 E.63711
G1 X109.318 Y109.258 E.63506
G1 X109.75 Y109.75 F7800
;TYPE:External perimeter
;WIDTH:0.499999
G1 F1800
G1 X90.25 Y109.75 E.74853
G1 X90.25 Y90.25 E.74853
G1 X109.75 Y90.25 E.74853
G1 X109.75 Y109.69 E.74623
G1 X109.364 Y109.646 F7800
G1 E-4.9 F1800
;WIPE_START
G1 F6240
G1 X102.47 Y109.712 E-1.995
;WIPE_END
G1 E-.105 F1800
G1 Z.6 F7800
G1 X109.249 Y90.825
G1 Z.4
G1 E7 F1800
;TYPE:Internal infill
;WIDTH:0.206
G1 F4800
G1 X90.825 Y90.825 E.25233
G1 X90.825 Y90.989 E.00224
G1 X109.175 Y90.989 E.25133
G1 X109.175 Y91.153 E.00224
G1 X90.825 Y91.153 E.25133
G1 X90.825 Y91.317 E.00224
G1 X109.175 Y91.317 E.25133
G1 X109.175 Y91.48 E.00224
G1 X90.825 Y91.48 E.25133
G1 X90.825 Y91.644 E.00224
G1 X109.175 Y91.644 E.25133
G1 X109.175 Y91.808 E.00224
G1 X90.825 Y91.808 E.25133
G1 X90.825 Y91.972 E.00224
G1 X109.175 Y91.972 E.25133
G1 X109.175 Y92.136 E.00224
G1 X90.825 Y92.136 E.25133
G1 X90.825 Y92.3 E.00224
G1 X109.175 Y92.3 E.25133
G1 X109.175 Y92.463 E.00224
G1 X90.825 Y92.463 E.25133
G1 X90.825 Y92.627 E.00224
G1 X109.175 Y92.627 E.25133
G1 X109.175 Y92.791 E.00224
G1 X90.825 Y92.791 E.25133
G1 X90.825 Y92.955 E.00224
G1 X109.175 Y92.955 E.25133
G1 X109.175 Y93.119 E.00224
G1 X90.825 Y93.119 E.25133
G1 X90.825 Y93.283 E.00224
G1 X109.175 Y93.283 E.25133
G1 X109.175 Y93.447 E.00224
G1 X90.825 Y93.447 E.25133
G1 X90.825 Y93.61 E.00224
G1 X109.175 Y93.61 E.25133
G1 X109.175 Y93.774 E.00224
G1 X90.825 Y93.774 E.25133
G1 X90.825 Y93.938 E.00224
G1 X109.175 Y93.938 E.25133
G1 X109.175 Y94.102 E.00224
G1 X90.825 Y94.102 E.25133
G1 X90.825 Y94.266 E.00224
G1 X109.175 Y94.266 E.25133
G1 X109.175 Y94.43 E.00224
G1 X90.825 Y94.43 E.25133
G1 X90.825 Y94.593 E.00224
G1 X109.175 Y94.593 E.25133
G1 X109.175 Y94.757 E.00224
G1 X90.825 Y94.757 E.25133
G1 X90.825 Y94.921 E.00224
G1 X109.175 Y94.921 E.25133
G1 X109.175 Y95.085 E.00224
G1 X90.825 Y95.085 E.25133
G1 X90.825 Y95.249 E.00224
G1 X109.175 Y95.249 E.25133
G1 X109.175 Y95.413 E.00224
G1 X90.825 Y95.413 E.25133
G1 X90.825 Y95.576 E.00224
G1 X109.175 Y95.576 E.25133
G1 X109.175 Y95.74 E.00224
G1 X90.825 Y95.74 E.25133
G1 X90.825 Y95.904 E.00224
G1 X109.175 Y95.904 E.25133
G1 X109.175 Y96.068 E.00224
G1 X90.825 Y96.068 E.25133
G1 X90.825 Y96.232 E.00224
G1 X109.175 Y96.232 E.25133
G1 X109.175 Y96.396 E.00224
G1 X90.825 Y96.396 E.25133
G1 X90.825 Y96.559 E.00224
G1 X109.175 Y96.559 E.25133
G1 X109.175 Y96.723 E.00224
G1 X90.825 Y96.723 E.25133
G1 X90.825 Y96.887 E.00224
G1 X109.175 Y96.887 E.25133
G1 X109.175 Y97.051 E.00224
G1 X90.825 Y97.051 E.25133
G1 X90.825 Y97.215 E.00224
G1 X109.175 Y97.215 E.25133
G1 X109.175 Y97.379 E.00224
G1 X90.825 Y97.379 E.25133
G1 X90.825 Y97.542 E.00224
G1 X109.175 Y97.542 E.25133
G1 X109.175 Y97.706 E.00224
G1 X90.825 Y97.706 E.25133
G1 X90.825 Y97.87 E.00224
G1 X109.175 Y97.87 E.25133
G1 X109.175 Y98.034 E.00224
G1 X90.825 Y98.034 E.25133
G1 X90.825 Y98.198 E.00224
G1 X109.175 Y98.198 E.25133
G1 X109.175 Y98.362 E.00224
G1 X90.825 Y98.362 E.25133
G1 X90.825 Y98.525 E.00224
G1 X109.175 Y98.525 E.25133
G1 X109.175 Y98.689 E.00224
G1 X90.825 Y98.689 E.25133
G1 X90.825 Y98.853 E.00224
G1 X109.175 Y98.853 E.25133
G1 X109.175 Y99.017 E.00224
G1 X90.825 Y99.017 E.25133
G1 X90.825 Y99.181 E.00224
G1 X109.175 Y99.181 E.25133
G1 X109.175 Y99.345 E.00224
G1 X90.825 Y99.345 E.25133
G1 X90.825 Y99.509 E.00224
G1 X109.175 Y99.509 E.25133
G1 X109.175 Y99.672 E.00224
G1 X90.825 Y99.672 E.25133
G1 X90.825 Y99.836 E.00224
G1 X109.175 Y99.836 E.25133
G1 X109.175 Y100 E.00224
G1 X90.825 Y100 E.25133
G1 X90.825 Y100.164 E.00224
G1 X109.175 Y100.164 E.25133
G1 X109.175 Y100.328 E.00224
G1 X90.825 Y100.328 E.25133
G1 X90.825 Y100.492 E.00224
G1 X109.175 Y100.492 E.25133
G1 X109.175 Y100.655 E.00224
G1 X90.825 Y100.655 E.25133
G1 X90.825 Y100.819 E.00224
G1 X109.175 Y100.819 E.25133
G1 X109.175 Y100.983 E.00224
G1 X90.825 Y100.983 E.25133
G1 X90.825 Y101.147 E.00224
G1 X109.175 Y101.147 E.25133
G1 X109.175 Y101.311 E.00224
G1 X90.825 Y101.311 E.25133
G1 X90.825 Y101.475 E.00224
G1 X109.175 Y101.475 E.25133
G1 X109.175 Y101.638 E.00224
G1 X90.825 Y101.638 E.25133
G1 X90.825 Y101.802 E.00224
G1 X109.175 Y101.802 E.25133
G1 X109.175 Y101.966 E.00224
G1 X90.825 Y101.966 E.25133
G1 X90.825 Y102.13 E.00224
G1 X109.175 Y102.13 E.25133
G1 X109.175 Y102.294 E.00224
G1 X90.825 Y102.294 E.25133
G1 X90.825 Y102.458 E.00224
G1 X109.175 Y102.458 E.25133
G1 X109.175 Y102.621 E.00224
G1 X90.825 Y102.621 E.25133
G1 X90.825 Y102.785 E.00224
G1 X109.175 Y102.785 E.25133
G1 X109.175 Y102.949 E.00224
G1 X90.825 Y102.949 E.25133
G1 X90.825 Y103.113 E.00224
G1 X109.175 Y103.113 E.25133
G1 X109.175 Y103.277 E.00224
G1 X90.825 Y103.277 E.25133
G1 X90.825 Y103.441 E.00224
G1 X109.175 Y103.441 E.25133
G1 X109.175 Y103.604 E.00224
G1 X90.825 Y103.604 E.25133
G1 X90.825 Y103.768 E.00224
G1 X109.175 Y103.768 E.25133
G1 X109.175 Y103.932 E.00224
G1 X90.825 Y103.932 E.25133
G1 X90.825 Y104.096 E.00224
G1 X109.175 Y104.096 E.25133
G1 X109.175 Y104.26 E.00224
G1 X90.825 Y104.26 E.25133
G1 X90.825 Y104.424 E.00224
G1 X109.175 Y104.424 E.25133
G1 X109.175 Y104.588 E.00224
G1 X90.825 Y104.588 E.25133
G1 X90.825 Y104.751 E.00224
G1 X109.175 Y104.751 E.25133
G1 X109.175 Y104.915 E.00224
G1 X90.825 Y104.915 E.25133
G1 X90.825 Y105.079 E.00224
G1 X109.175 Y105.079 E.25133
G1 X109.175 Y105.243 E.00224
G1 X90.825 Y105.243 E.25133
G1 X90.825 Y105.407 E.00224
G1 X109.175 Y105.407 E.25133
G1 X109.175 Y105.571 E.00224
G1 X90.825 Y105.571 E.25133
G1 X90.825 Y105.734 E.00224
G1 X109.175 Y105.734 E.25133
G1 X109.175 Y105.898 E.00224
G1 X90.825 Y105.898 E.25133
G1 X90.825 Y106.062 E.00224
G1 X109.175 Y106.062 E.25133
G1 X109.175 Y106.226 E.00224
G1 X90.825 Y106.226 E.25133
G1 X90.825 Y106.39 E.00224
G1 X109.175 Y106.39 E.25133
G1 X109.175 Y106.554 E.00224
G1 X90.825 Y106.554 E.25133
G1 X90.825 Y106.717 E.00224
G1 X109.175 Y106.717 E.25133
G1 X109.175 Y106.881 E.00224
G1 X90.825 Y106.881 E.25133
G1 X90.825 Y107.045 E.00224
G1 X109.175 Y107.045 E.25133
G1 X109.175 Y107.209 E.00224
G1 X90.825 Y107.209 E.25133
G1 X90.825 Y107.373 E.00224
G1 X109.175 Y107.373 E.25133
G1 X109.175 Y107.537 E.00224
G1 X90.825 Y107.537 E.25133
G1 X90.825 Y107.7 E.00224
G1 X109.175 Y107.7 E.25133
G1 X109.175 Y107.864 E.00224
G1 X90.825 Y107.864 E.25133
G1 X90.825 Y108.028 E.00224
G1 X109.175 Y108.028 E.25133
G1 X109.175 Y108.192 E.00224
G1 X90.825 Y108.192 E.25133
G1 X90.825 Y108.356 E.00224
G1 X109.175 Y108.356 E.25133
G1 X109.175 Y108.52 E.00224
G1 X90.825 Y108.52 E.25133
