; generated by PrusaSlicer 2.5.0+win64 on 2022-10-18 at 16:06:42 UTC

; 

; external perimeters extrusion width = 0.45mm
; perimeters extrusion width = 0.45mm
; infill extrusion width = 0.45mm
; solid infill extrusion width = 0.45mm
; top infill extrusion width = 0.40mm
; first layer extrusion width = 0.70mm

M107
;TYPE:Custom
G21 ;metric values
G90 ;absolute positioning
M82 ;set extruder to absolute mode
M107 ;start with the fan off
M117 Homing X/Y ...
G28 X0 Y0 ;move X/Y to min endstops
M117 Homing Z ...
G28 Z0 ;move Z to min endstops
G1 Z15.0 F240 ;move the platform down 15mm
M117 Heating ...
M104 S200
 ; set extruder temp
M109 S200
 ; wait for extruder temp
M117 Start cleaning ...
G92 E0 ;zero the extruded length
G1 F200 E10 ;extrude 10mm of feed stock
G92 E0 ;zero the extruded length again
M117 Intro line ...
G1 Z2.0 F3000 ; Move Z Axis up little to prevent scratching of Heat Bed
G1 X0.1 Y20 Z0.35 F5000.0 ; Move to start position
G1 X0.1 Y200.0 Z0.35 F1500.0 E15 ; Draw the first line
G1 X0.4 Y200.0 Z0.35 F5000.0 ; Move to side a little
G1 X0.4 Y20 Z0.30.35 F1500.0 E30 ; Draw the second line
G92 E0 ; Reset Extruder
G1 E-1 F500 ; Retract filiment by 1 mm
G1 Z2.0 F3000 ; Move Z Axis up little to prevent scratching of Heat Bed
G1 X5 Y20 Z0.3 F240 ; Move over to prevent blob squish
G92 E0 ; Reset Extruder
M117 Printing...
G21 ; set units to millimeters
G90 ; use absolute coordinates
M83 ; use relative distances for extrusion
; Filament gcode
M107
;LAYER_CHANGE
;Z:0.35
;HEIGHT:0.35
; BEFORE_LAYER_CHANGE 0 @ 0.35mm
G92 E0.0
G1 E-7 F1800
G1 Z.2 F7800
G1 Z.35
; AFTER_LAYER_CHANGE 0 @ 0.35mm
G1 Z.55
G1 X89.915 Y90.753
G1 Z.35
G1 E7 F1800
;TYPE:Skirt/Brim
;WIDTH:0.7
G1 X91.668 Y89.274 E.20854
G1 X93.82 Y88.481 E.20854
G1 X95 Y88.375 E.10771
G1 X105 Y88.375 E.9093
G1 X107.259 Y88.772 E.20854
G1 X109.247 Y89.915 E.20854
G1 X110.726 Y91.668 E.20854
G1 X111.519 Y93.82 E.20854
G1 X111.625 Y95 E.10771
G1 X111.625 Y105 E.9093
G1 X111.228 Y107.259 E.20854
G1 X110.085 Y109.247 E.20854
G1 X108.332 Y110.726 E.20854
G1 X106.18 Y111.519 E.20854
G1 X105 Y111.625 E.10771
G1 X95 Y111.625 E.9093
G1 X92.741 Y111.228 E.20854
G1 X90.753 Y110.085 E.20854
G1 X89.274 Y108.332 E.20854
G1 X88.481 Y106.18 E.20854
G1 X88.375 Y105 E.10771
G1 X88.375 Y95 E.9093
G1 X88.772 Y92.741 E.20854
G1 X89.886 Y90.805 E.20309
G1 E-4.9
;WIPE_START
G1 F6240
G1 X91.668 Y89.274 E-.64398
G1 X93.82 Y88.481 E-.62849
G1 X95 Y88.375 E-.32461
G1 X96.452 Y88.375 E-.39792
;WIPE_END
G1 E-.105 F1800
G1 Z.55 F7800
G1 X103.4 Y103.4
G1 Z.35
G1 E7 F1800
;TYPE:Perimeter
;WIDTH:0.7
G1 X96.6 Y103.4 E.61836
G1 X96.6 Y96.6 E.61836
G1 X103.4 Y96.6 E.61836
G1 X103.4 Y103.34 E.61291
G1 X104.025 Y104.025 F7800
G1 F1800
G1 X95.975 Y104.025 E.732
G1 X95.975 Y95.975 E.732
G1 X104.025 Y95.975 E.732
G1 X104.025 Y103.965 E.72655
G1 X104.65 Y104.65 F7800
;TYPE:External perimeter
G1 F1800
G1 X95.35 Y104.65 E.84564
G1 X95.35 Y95.35 E.84564
G1 X104.65 Y95.35 E.84564
G1 X104.65 Y104.59 E.84019
G1 X104.264 Y104.546 F7800
G1 E-4.9 F1800
;WIPE_START
G1 F6240
G1 X97.37 Y104.637 E-1.995
;WIPE_END
G1 E-.105 F1800
G1 Z.55 F7800
G1 X101.885 Y96.787
G1 Z.35
G1 E7 F1800
;TYPE:Solid infill
;WIDTH:0.7305
G1 X102.932 Y97.834 E.14116
G1 X102.932 Y98.761 E.08839
G1 X101.239 Y97.068 E.22825
G1 X100.312 Y97.068 E.08839
G1 X102.932 Y99.688 E.35325
G1 X102.932 Y100.614 E.08839
G1 X99.386 Y97.068 E.47826
G1 X98.459 Y97.068 E.08839
G1 X102.932 Y101.541 E.60326
G1 X102.932 Y102.468 E.08839
G1 X97.532 Y97.068 E.72827
G1 X97.068 Y97.068 E.04419
G1 X97.068 Y97.532 E.0442
G1 X102.468 Y102.932 E.72825
G1 X101.541 Y102.932 E.08839
G1 X97.068 Y98.459 E.60325
G1 X97.068 Y99.386 E.08839
G1 X100.614 Y102.932 E.47824
G1 X99.687 Y102.932 E.08839
G1 X97.068 Y100.313 E.35323
G1 X97.068 Y101.239 E.08839
G1 X98.761 Y102.932 E.22823
G1 X97.834 Y102.932 E.08839
G1 X96.787 Y101.885 E.14115
;LAYER_CHANGE
;Z:0.65
;HEIGHT:0.3
; BEFORE_LAYER_CHANGE 1 @ 0.65mm
G92 E0.0
G1 E-4.9 F1800
;WIPE_START
G1 F6240
G1 X97.834 Y102.932 E-.40559
G1 X98.761 Y102.932 E-.254
G1 X97.068 Y101.239 E-.65581
G1 X97.068 Y100.313 E-.254
G1 X98.167 Y101.411 E-.42561
;WIPE_END
G1 E-.105 F1800
G1 Z.55 F7800
G1 Z.65
; AFTER_LAYER_CHANGE 1 @ 0.65mm
G1 Z.85
G1 X104.004 Y104.004
G1 Z.65
G1 E7 F1800
;TYPE:Perimeter
;WIDTH:0.45
G1 F900
G1 X95.996 Y104.004 E.38513
G1 X95.996 Y95.996 E.38513
G1 X104.004 Y95.996 E.38513
G1 X104.004 Y103.944 E.38225
G1 X104.389 Y104.389 F7800
G1 F900
G1 X95.611 Y104.389 E.42223
G1 X95.611 Y95.611 E.42223
G1 X104.389 Y95.611 E.42223
G1 X104.389 Y104.329 E.41934
G1 X104.775 Y104.775 F7800
;TYPE:External perimeter
G1 F900
G1 X95.225 Y104.775 E.45932
G1 X95.225 Y95.225 E.45932
G1 X104.775 Y95.225 E.45932
G1 X104.775 Y104.715 E.45644
G1 X104.389 Y104.671 F7800
G1 X103.089 Y103.888
;TYPE:Solid infill
;WIDTH:0.459084
G1 F1200
G1 X103.715 Y103.263 E.04353
G1 X103.715 Y102.705 E.02748
G1 X102.705 Y103.715 E.07031
G1 X102.146 Y103.715 E.02748
G1 X103.715 Y102.146 E.10918
G1 X103.715 Y101.588 E.02748
G1 X101.588 Y103.715 E.14804
G1 X101.03 Y103.715 E.02748
G1 X103.715 Y101.03 E.1869
G1 X103.715 Y100.472 E.02748
G1 X100.472 Y103.715 E.22576
G1 X99.914 Y103.715 E.02748
G1 X103.715 Y99.914 E.26462
G1 X103.715 Y99.355 E.02748
G1 X99.355 Y103.715 E.30349
G1 X98.797 Y103.715 E.02748
G1 X103.715 Y98.797 E.34235
G1 X103.715 Y98.239 E.02748
G1 X98.239 Y103.715 E.38121
G1 X97.681 Y103.715 E.02748
G1 X103.715 Y97.681 E.42007
G1 X103.715 Y97.123 E.02748
G1 X97.123 Y103.715 E.45893
G1 X96.564 Y103.715 E.02748
G1 X103.715 Y96.564 E.4978
G1 X103.715 Y96.285 E.01374
G1 X103.435 Y96.285 E.01374
G1 X96.285 Y103.435 E.49779
G1 X96.285 Y102.877 E.02748
G1 X102.877 Y96.285 E.45893
G1 X102.319 Y96.285 E.02748
G1 X96.285 Y102.319 E.42006
G1 X96.285 Y101.761 E.02748
G1 X101.761 Y96.285 E.3812
G1 X101.203 Y96.285 E.02748
G1 X96.285 Y101.203 E.34234
G1 X96.285 Y100.644 E.02748
G1 X100.644 Y96.285 E.30348
G1 X100.086 Y96.285 E.02748
G1 X96.285 Y100.086 E.26462
G1 X96.285 Y99.528 E.02748
G1 X99.528 Y96.285 E.22575
G1 X98.97 Y96.285 E.02748
G1 X96.285 Y98.97 E.18689
G1 X96.285 Y98.412 E.02748
G1 X98.412 Y96.285 E.14803
G1 X97.853 Y96.285 E.02748
G1 X96.285 Y97.853 E.10917
G1 X96.285 Y97.295 E.02748
G1 X97.295 Y96.285 E.07031
G1 X96.737 Y96.285 E.02748
G1 X96.112 Y96.911 E.04352
;LAYER_CHANGE
;Z:0.95
;HEIGHT:0.3
; BEFORE_LAYER_CHANGE 2 @ 0.95mm
G92 E0.0
G1 E-4.9 F1800
;WIPE_START
G1 F6240
G1 X96.737 Y96.285 E-.24228
G1 X97.295 Y96.285 E-.15297
G1 X96.285 Y97.295 E-.39136
G1 X96.285 Y97.853 E-.15297
G1 X97.853 Y96.285 E-.60769
G1 X98.412 Y96.285 E-.15297
G1 X97.651 Y97.046 E-.29477
;WIPE_END
G1 E-.105 F1800
G1 Z.85 F7800
G1 Z.95
; AFTER_LAYER_CHANGE 2 @ 0.95mm
G1 Z1.15
G1 X104.004 Y104.004
G1 Z.95
G1 E7 F1800
;TYPE:Perimeter
;WIDTH:0.45
G1 F900
G1 X95.996 Y104.004 E.38513
G1 X95.996 Y95.996 E.38513
G1 X104.004 Y95.996 E.38513
G1 X104.004 Y103.944 E.38225
G1 X104.389 Y104.389 F7800
G1 F900
G1 X95.611 Y104.389 E.42223
G1 X95.611 Y95.611 E.42223
G1 X104.389 Y95.611 E.42223
G1 X104.389 Y104.329 E.41934
G1 X104.775 Y104.775 F7800
;TYPE:External perimeter
G1 F900
G1 X95.225 Y104.775 E.45932
G1 X95.225 Y95.225 E.45932
G1 X104.775 Y95.225 E.45932
G1 X104.775 Y104.715 E.45644
G1 X104.389 Y104.671 F7800
G1 E-4.9 F1800
;WIPE_START
G1 F6240
G1 X97.495 Y104.761 E-1.995
;WIPE_END
G1 E-.105 F1800
G1 Z1.15 F7800
G1 X103.089 Y96.112
G1 Z.95
G1 E7 F1800
;TYPE:Solid infill
;WIDTH:0.459084
G1 F1200
G1 X103.715 Y96.737 E.04353
G1 X103.715 Y97.295 E.02748
G1 X102.705 Y96.285 E.07031
G1 X102.146 Y96.285 E.02748
G1 X103.715 Y97.854 E.10917
G1 X103.715 Y98.412 E.02748
G1 X101.588 Y96.285 E.14804
G1 X101.03 Y96.285 E.02748
G1 X103.715 Y98.97 E.1869
G1 X103.715 Y99.528 E.02748
G1 X100.472 Y96.285 E.22576
G1 X99.914 Y96.285 E.02748
G1 X103.715 Y100.086 E.26462
G1 X103.715 Y100.645 E.02748
G1 X99.355 Y96.285 E.30349
G1 X98.797 Y96.285 E.02748
G1 X103.715 Y101.203 E.34235
G1 X103.715 Y101.761 E.02748
G1 X98.239 Y96.285 E.38121
G1 X97.681 Y96.285 E.02748
G1 X103.715 Y102.319 E.42007
G1 X103.715 Y102.877 E.02748
G1 X97.123 Y96.285 E.45893
G1 X96.564 Y96.285 E.02748
G1 X103.715 Y103.436 E.4978
G1 X103.715 Y103.715 E.01374
G1 X103.435 Y103.715 E.01374
G1 X96.285 Y96.565 E.49779
G1 X96.285 Y97.123 E.02748
G1 X102.877 Y103.715 E.45893
G1 X102.319 Y103.715 E.02748
G1 X96.285 Y97.681 E.42006
G1 X96.285 Y98.239 E.02748
G1 X101.761 Y103.715 E.3812
G1 X101.203 Y103.715 E.02748
G1 X96.285 Y98.797 E.34234
G1 X96.285 Y99.356 E.02748
G1 X100.644 Y103.715 E.30348
G1 X100.086 Y103.715 E.02748
G1 X96.285 Y99.914 E.26462
G1 X96.285 Y100.472 E.02748
G1 X99.528 Y103.715 E.22575
G1 X98.97 Y103.715 E.02748
G1 X96.285 Y101.03 E.18689
G1 X96.285 Y101.588 E.02748
G1 X98.412 Y103.715 E.14803
G1 X97.853 Y103.715 E.02748
G1 X96.285 Y102.147 E.10917
G1 X96.285 Y102.705 E.02748
G1 X97.295 Y103.715 E.07031
G1 X96.737 Y103.715 E.02748
G1 X96.112 Y103.089 E.04352
M106 S221.85
;LAYER_CHANGE
;Z:1.25
;HEIGHT:0.3
; BEFORE_LAYER_CHANGE 3 @ 1.25mm
G92 E0.0
G1 E-4.9 F1800
;WIPE_START
G1 F6240
G1 X96.737 Y103.715 E-.24228
G1 X97.295 Y103.715 E-.15297
G1 X96.285 Y102.705 E-.39136
G1 X96.285 Y102.147 E-.15297
G1 X97.853 Y103.715 E-.60769
G1 X98.412 Y103.715 E-.15297
G1 X97.651 Y102.954 E-.29477
;WIPE_END
G1 E-.105 F1800
G1 Z1.15 F7800
G1 Z1.25
; AFTER_LAYER_CHANGE 3 @ 1.25mm
G1 Z1.45
G1 X104.004 Y104.004
G1 Z1.25
G1 E7 F1800
;TYPE:Perimeter
;WIDTH:0.45
G1 F900
G1 X95.996 Y104.004 E.38513
G1 X95.996 Y95.996 E.38513
G1 X104.004 Y95.996 E.38513
G1 X104.004 Y103.944 E.38225
G1 X104.389 Y104.389 F7800
G1 F900
G1 X95.611 Y104.389 E.42223
G1 X95.611 Y95.611 E.42223
G1 X104.389 Y95.611 E.42223
G1 X104.389 Y104.329 E.41934
G1 X104.775 Y104.775 F7800
;TYPE:External perimeter
G1 F900
G1 X95.225 Y104.775 E.45932
G1 X95.225 Y95.225 E.45932
G1 X104.775 Y95.225 E.45932
G1 X104.775 Y104.715 E.45644
G1 X104.389 Y104.671 F7800
G1 X103.888 Y103.089
;TYPE:Solid infill
;WIDTH:0.459083
G1 F1200
G1 X103.263 Y103.715 E.04353
G1 X102.705 Y103.715 E.02748
G1 X103.715 Y102.705 E.07031
G1 X103.715 Y102.146 E.02748
G1 X102.146 Y103.715 E.10917
G1 X101.588 Y103.715 E.02748
G1 X103.715 Y101.588 E.14804
G1 X103.715 Y101.03 E.02748
G1 X101.03 Y103.715 E.1869
G1 X100.472 Y103.715 E.02748
G1 X103.715 Y100.472 E.22576
G1 X103.715 Y99.914 E.02748
G1 X99.914 Y103.715 E.26462
G1 X99.355 Y103.715 E.02748
G1 X103.715 Y99.355 E.30348
G1 X103.715 Y98.797 E.02748
G1 X98.797 Y103.715 E.34235
G1 X98.239 Y103.715 E.02748
G1 X103.715 Y98.239 E.38121
G1 X103.715 Y97.681 E.02748
G1 X97.681 Y103.715 E.42007
G1 X97.123 Y103.715 E.02748
G1 X103.715 Y97.123 E.45893
G1 X103.715 Y96.564 E.02748
G1 X96.564 Y103.715 E.49779
G1 X96.285 Y103.715 E.01374
G1 X96.285 Y103.435 E.01374
G1 X103.435 Y96.285 E.49779
G1 X102.877 Y96.285 E.02748
G1 X96.285 Y102.877 E.45892
G1 X96.285 Y102.319 E.02748
G1 X102.319 Y96.285 E.42006
G1 X101.761 Y96.285 E.02748
G1 X96.285 Y101.761 E.3812
G1 X96.285 Y101.203 E.02748
G1 X101.203 Y96.285 E.34234
G1 X100.644 Y96.285 E.02748
G1 X96.285 Y100.644 E.30348
G1 X96.285 Y100.086 E.02748
G1 X100.086 Y96.285 E.26461
G1 X99.528 Y96.285 E.02748
G1 X96.285 Y99.528 E.22575
G1 X96.285 Y98.97 E.02748
G1 X98.97 Y96.285 E.18689
G1 X98.412 Y96.285 E.02748
G1 X96.285 Y98.412 E.14803
G1 X96.285 Y97.853 E.02748
G1 X97.853 Y96.285 E.10917
G1 X97.295 Y96.285 E.02748
G1 X96.285 Y97.295 E.07031
G1 X96.285 Y96.737 E.02748
G1 X96.911 Y96.112 E.04352
M106 S219.3
;LAYER_CHANGE
;Z:1.55
;HEIGHT:0.3
; BEFORE_LAYER_CHANGE 4 @ 1.55mm
G92 E0.0
G1 E-4.9 F1800
;WIPE_START
G1 F6240
G1 X96.285 Y96.737 E-.24228
G1 X96.285 Y97.295 E-.15297
G1 X97.295 Y96.285 E-.39136
G1 X97.853 Y96.285 E-.15297
G1 X96.285 Y97.853 E-.60768
G1 X96.285 Y98.412 E-.15297
G1 X97.046 Y97.651 E-.29478
;WIPE_END
G1 E-.105 F1800
G1 Z1.45 F7800
G1 Z1.55
; AFTER_LAYER_CHANGE 4 @ 1.55mm
G1 Z1.75
G1 X104.004 Y104.004
G1 Z1.55
G1 E7 F1800
;TYPE:Perimeter
;WIDTH:0.45
G1 F900
G1 X95.996 Y104.004 E.38513
G1 X95.996 Y95.996 E.38513
G1 X104.004 Y95.996 E.38513
G1 X104.004 Y103.944 E.38225
G1 X104.389 Y104.389 F7800
G1 F900
G1 X95.611 Y104.389 E.42223
G1 X95.611 Y95.611 E.42223
G1 X104.389 Y95.611 E.42223
G1 X104.389 Y104.329 E.41934
G1 X104.775 Y104.775 F7800
;TYPE:External perimeter
G1 F900
G1 X95.225 Y104.775 E.45932
G1 X95.225 Y95.225 E.45932
G1 X104.775 Y95.225 E.45932
G1 X104.775 Y104.715 E.45644
G1 X104.389 Y104.671 F7800
G1 E-4.9 F1800
;WIPE_START
G1 F6240
G1 X97.495 Y104.761 E-1.995
;WIPE_END
G1 E-.105 F1800
G1 Z1.75 F7800
G1 X103.089 Y96.112
G1 Z1.55
G1 E7 F1800
;TYPE:Solid infill
;WIDTH:0.459083
G1 F1200
G1 X103.715 Y96.737 E.04353
G1 X103.715 Y97.295 E.02748
G1 X102.705 Y96.285 E.07031
G1 X102.146 Y96.285 E.02748
G1 X103.715 Y97.854 E.10917
G1 X103.715 Y98.412 E.02748
G1 X101.588 Y96.285 E.14804
G1 X101.03 Y96.285 E.02748
G1 X103.715 Y98.97 E.1869
G1 X103.715 Y99.528 E.02748
G1 X100.472 Y96.285 E.22576
G1 X99.914 Y96.285 E.02748
G1 X103.715 Y100.086 E.26462
G1 X103.715 Y100.645 E.02748
G1 X99.355 Y96.285 E.30348
G1 X98.797 Y96.285 E.02748
G1 X103.715 Y101.203 E.34235
G1 X103.715 Y101.761 E.02748
G1 X98.239 Y96.285 E.38121
G1 X97.681 Y96.285 E.02748
G1 X103.715 Y102.319 E.42007
G1 X103.715 Y102.877 E.02748
G1 X97.123 Y96.285 E.45893
G1 X96.564 Y96.285 E.02748
G1 X103.715 Y103.436 E.49779
G1 X103.715 Y103.715 E.01374
G1 X103.435 Y103.715 E.01374
G1 X96.285 Y96.565 E.49779
G1 X96.285 Y97.123 E.02748
G1 X102.877 Y103.715 E.45892
G1 X102.319 Y103.715 E.02748
G1 X96.285 Y97.681 E.42006
G1 X96.285 Y98.239 E.02748
G1 X101.761 Y103.715 E.3812
G1 X101.203 Y103.715 E.02748
G1 X96.285 Y98.797 E.34234
G1 X96.285 Y99.356 E.02748
G1 X100.644 Y103.715 E.30348
G1 X100.086 Y103.715 E.02748
G1 X96.285 Y99.914 E.26461
G1 X96.285 Y100.472 E.02748
G1 X99.528 Y103.715 E.22575
G1 X98.97 Y103.715 E.02748
G1 X96.285 Y101.03 E.18689
G1 X96.285 Y101.588 E.02748
G1 X98.412 Y103.715 E.14803
G1 X97.853 Y103.715 E.02748
G1 X96.285 Y102.147 E.10917
G1 X96.285 Y102.705 E.02748
G1 X97.295 Y103.715 E.0703
G1 X96.737 Y103.715 E.02748
G1 X96.112 Y103.089 E.04352
M106 S221.85
;LAYER_CHANGE
;Z:1.85
;HEIGHT:0.3
; BEFORE_LAYER_CHANGE 5 @ 1.85mm
G92 E0.0
G1 E-4.9 F1800
;WIPE_START
G1 F6240
G1 X96.737 Y103.715 E-.24228
G1 X97.295 Y103.715 E-.15297
G1 X96.285 Y102.705 E-.39136
G1 X96.285 Y102.147 E-.15297
G1 X97.853 Y103.715 E-.60768
G1 X98.412 Y103.715 E-.15297
G1 X97.651 Y102.954 E-.29478
;WIPE_END
G1 E-.105 F1800
G1 Z1.75 F7800
G1 Z1.85
; AFTER_LAYER_CHANGE 5 @ 1.85mm
G1 Z2.05
G1 X104.004 Y104.004
G1 Z1.85
G1 E7 F1800
;TYPE:Perimeter
;WIDTH:0.45
G1 F900
G1 X95.996 Y104.004 E.38513
G1 X95.996 Y95.996 E.38513
G1 X104.004 Y95.996 E.38513
G1 X104.004 Y103.944 E.38225
G1 X104.389 Y104.389 F7800
G1 F900
G1 X95.611 Y104.389 E.42223
G1 X95.611 Y95.611 E.42223
G1 X104.389 Y95.611 E.42223
G1 X104.389 Y104.329 E.41934
G1 X104.775 Y104.775 F7800
;TYPE:External perimeter
G1 F900
G1 X95.225 Y104.775 E.45932
G1 X95.225 Y95.225 E.45932
G1 X104.775 Y95.225 E.45932
G1 X104.775 Y104.715 E.45644
G1 X104.389 Y104.671 F7800
G1 X103.888 Y103.089
;TYPE:Solid infill
;WIDTH:0.459083
G1 F1200
G1 X103.263 Y103.715 E.04353
G1 X102.705 Y103.715 E.02748
G1 X103.715 Y102.705 E.07031
G1 X103.715 Y102.146 E.02748
G1 X102.146 Y103.715 E.10917
G1 X101.588 Y103.715 E.02748
G1 X103.715 Y101.588 E.14804
G1 X103.715 Y101.03 E.02748
G1 X101.03 Y103.715 E.1869
G1 X100.472 Y103.715 E.02748
G1 X103.715 Y100.472 E.22576
G1 X103.715 Y99.914 E.02748
G1 X99.914 Y103.715 E.26462
G1 X99.355 Y103.715 E.02748
G1 X103.715 Y99.355 E.30348
G1 X103.715 Y98.797 E.02748
G1 X98.797 Y103.715 E.34235
G1 X98.239 Y103.715 E.02748
G1 X103.715 Y98.239 E.38121
G1 X103.715 Y97.681 E.02748
G1 X97.681 Y103.715 E.42007
G1 X97.123 Y103.715 E.02748
G1 X103.715 Y97.123 E.45893
G1 X103.715 Y96.564 E.02748
G1 X96.564 Y103.715 E.49779
G1 X96.285 Y103.715 E.01374
G1 X96.285 Y103.435 E.01374
G1 X103.435 Y96.285 E.49779
G1 X102.877 Y96.285 E.02748
G1 X96.285 Y102.877 E.45892
G1 X96.285 Y102.319 E.02748
G1 X102.319 Y96.285 E.42006
G1 X101.761 Y96.285 E.02748
G1 X96.285 Y101.761 E.3812
G1 X96.285 Y101.203 E.02748
G1 X101.203 Y96.285 E.34234
G1 X100.644 Y96.285 E.02748
G1 X96.285 Y100.644 E.30348
G1 X96.285 Y100.086 E.02748
G1 X100.086 Y96.285 E.26461
